<?xml version="1.0" encoding="UTF-8"?>
<map version="1.10" tiledversion="1.11.2" orientation="orthogonal" renderorder="right-up" width="31" height="18" tilewidth="32" tileheight="32" infinite="0" nextlayerid="9" nextobjectid="1">
 <tileset firstgid="1" name="The Sidescroller's Dungeon Tiles 32x32" tilewidth="32" tileheight="32" tilecount="399" columns="21">
  <image source="The Sidescroller's Dungeon Tiles 32x32.png" width="672" height="608"/>
 </tileset>
 <layer id="1" name="Background 1" width="31" height="18">
  <data>
   <tile gid="44"/>
   <tile gid="44"/>
   <tile gid="44"/>
   <tile gid="44"/>
   <tile gid="44"/>
   <tile gid="44"/>
   <tile gid="233"/>
   <tile gid="233"/>
   <tile gid="233"/>
   <tile gid="128"/>
   <tile gid="128"/>
   <tile gid="233"/>
   <tile gid="233"/>
   <tile gid="233"/>
   <tile gid="233"/>
   <tile gid="128"/>
   <tile gid="128"/>
   <tile gid="233"/>
   <tile gid="233"/>
   <tile gid="233"/>
   <tile gid="233"/>
   <tile gid="128"/>
   <tile gid="128"/>
   <tile gid="233"/>
   <tile gid="233"/>
   <tile gid="233"/>
   <tile gid="233"/>
   <tile gid="233"/>
   <tile gid="233"/>
   <tile gid="233"/>
   <tile gid="233"/>
   <tile gid="44"/>
   <tile gid="44"/>
   <tile gid="44"/>
   <tile gid="44"/>
   <tile gid="44"/>
   <tile gid="44"/>
   <tile gid="233"/>
   <tile gid="233"/>
   <tile gid="233"/>
   <tile gid="128"/>
   <tile gid="128"/>
   <tile gid="233"/>
   <tile gid="233"/>
   <tile gid="233"/>
   <tile gid="233"/>
   <tile gid="128"/>
   <tile gid="128"/>
   <tile gid="233"/>
   <tile gid="233"/>
   <tile gid="233"/>
   <tile gid="233"/>
   <tile gid="128"/>
   <tile gid="128"/>
   <tile gid="233"/>
   <tile gid="233"/>
   <tile gid="233"/>
   <tile gid="233"/>
   <tile gid="128"/>
   <tile gid="128"/>
   <tile gid="233"/>
   <tile gid="233"/>
   <tile gid="44"/>
   <tile gid="44"/>
   <tile gid="44"/>
   <tile gid="44"/>
   <tile gid="44"/>
   <tile gid="44"/>
   <tile gid="233"/>
   <tile gid="233"/>
   <tile gid="233"/>
   <tile gid="128"/>
   <tile gid="128"/>
   <tile gid="233"/>
   <tile gid="233"/>
   <tile gid="233"/>
   <tile gid="233"/>
   <tile gid="128"/>
   <tile gid="128"/>
   <tile gid="233"/>
   <tile gid="233"/>
   <tile gid="233"/>
   <tile gid="233"/>
   <tile gid="128"/>
   <tile gid="128"/>
   <tile gid="233"/>
   <tile gid="233"/>
   <tile gid="233"/>
   <tile gid="233"/>
   <tile gid="128"/>
   <tile gid="128"/>
   <tile gid="233"/>
   <tile gid="233"/>
   <tile gid="44"/>
   <tile gid="44"/>
   <tile gid="44"/>
   <tile gid="44"/>
   <tile gid="44"/>
   <tile gid="44"/>
   <tile gid="233"/>
   <tile gid="233"/>
   <tile gid="233"/>
   <tile gid="128"/>
   <tile gid="128"/>
   <tile gid="233"/>
   <tile gid="233"/>
   <tile gid="233"/>
   <tile gid="233"/>
   <tile gid="128"/>
   <tile gid="128"/>
   <tile gid="233"/>
   <tile gid="233"/>
   <tile gid="233"/>
   <tile gid="233"/>
   <tile gid="128"/>
   <tile gid="128"/>
   <tile gid="233"/>
   <tile gid="233"/>
   <tile gid="233"/>
   <tile gid="233"/>
   <tile gid="128"/>
   <tile gid="128"/>
   <tile gid="233"/>
   <tile gid="233"/>
   <tile gid="44"/>
   <tile gid="44"/>
   <tile gid="44"/>
   <tile gid="44"/>
   <tile gid="44"/>
   <tile gid="44"/>
   <tile gid="233"/>
   <tile gid="233"/>
   <tile gid="233"/>
   <tile gid="128"/>
   <tile gid="128"/>
   <tile gid="233"/>
   <tile gid="233"/>
   <tile gid="233"/>
   <tile gid="233"/>
   <tile gid="128"/>
   <tile gid="128"/>
   <tile gid="233"/>
   <tile gid="233"/>
   <tile gid="233"/>
   <tile gid="233"/>
   <tile gid="128"/>
   <tile gid="128"/>
   <tile gid="233"/>
   <tile gid="233"/>
   <tile gid="233"/>
   <tile gid="233"/>
   <tile gid="128"/>
   <tile gid="128"/>
   <tile gid="233"/>
   <tile gid="233"/>
   <tile gid="128"/>
   <tile gid="128"/>
   <tile gid="128"/>
   <tile gid="128"/>
   <tile gid="44"/>
   <tile gid="44"/>
   <tile gid="233"/>
   <tile gid="233"/>
   <tile gid="233"/>
   <tile gid="128"/>
   <tile gid="128"/>
   <tile gid="233"/>
   <tile gid="233"/>
   <tile gid="233"/>
   <tile gid="233"/>
   <tile gid="128"/>
   <tile gid="128"/>
   <tile gid="233"/>
   <tile gid="233"/>
   <tile gid="233"/>
   <tile gid="233"/>
   <tile gid="128"/>
   <tile gid="128"/>
   <tile gid="233"/>
   <tile gid="233"/>
   <tile gid="233"/>
   <tile gid="233"/>
   <tile gid="128"/>
   <tile gid="128"/>
   <tile gid="233"/>
   <tile gid="233"/>
   <tile gid="128"/>
   <tile gid="128"/>
   <tile gid="128"/>
   <tile gid="128"/>
   <tile gid="44"/>
   <tile gid="44"/>
   <tile gid="233"/>
   <tile gid="233"/>
   <tile gid="233"/>
   <tile gid="128"/>
   <tile gid="128"/>
   <tile gid="233"/>
   <tile gid="233"/>
   <tile gid="233"/>
   <tile gid="233"/>
   <tile gid="128"/>
   <tile gid="128"/>
   <tile gid="233"/>
   <tile gid="233"/>
   <tile gid="233"/>
   <tile gid="233"/>
   <tile gid="128"/>
   <tile gid="128"/>
   <tile gid="233"/>
   <tile gid="233"/>
   <tile gid="233"/>
   <tile gid="233"/>
   <tile gid="128"/>
   <tile gid="128"/>
   <tile gid="233"/>
   <tile gid="233"/>
   <tile gid="128"/>
   <tile gid="128"/>
   <tile gid="128"/>
   <tile gid="128"/>
   <tile gid="44"/>
   <tile gid="44"/>
   <tile gid="233"/>
   <tile gid="233"/>
   <tile gid="233"/>
   <tile gid="128"/>
   <tile gid="128"/>
   <tile gid="233"/>
   <tile gid="233"/>
   <tile gid="233"/>
   <tile gid="233"/>
   <tile gid="128"/>
   <tile gid="128"/>
   <tile gid="233"/>
   <tile gid="233"/>
   <tile gid="233"/>
   <tile gid="233"/>
   <tile gid="128"/>
   <tile gid="128"/>
   <tile gid="233"/>
   <tile gid="233"/>
   <tile gid="233"/>
   <tile gid="233"/>
   <tile gid="128"/>
   <tile gid="128"/>
   <tile gid="233"/>
   <tile gid="233"/>
   <tile gid="128"/>
   <tile gid="128"/>
   <tile gid="128"/>
   <tile gid="128"/>
   <tile gid="44"/>
   <tile gid="44"/>
   <tile gid="233"/>
   <tile gid="233"/>
   <tile gid="233"/>
   <tile gid="128"/>
   <tile gid="128"/>
   <tile gid="233"/>
   <tile gid="233"/>
   <tile gid="233"/>
   <tile gid="233"/>
   <tile gid="128"/>
   <tile gid="128"/>
   <tile gid="233"/>
   <tile gid="233"/>
   <tile gid="233"/>
   <tile gid="233"/>
   <tile gid="128"/>
   <tile gid="128"/>
   <tile gid="233"/>
   <tile gid="233"/>
   <tile gid="233"/>
   <tile gid="233"/>
   <tile gid="128"/>
   <tile gid="128"/>
   <tile gid="233"/>
   <tile gid="233"/>
   <tile gid="128"/>
   <tile gid="128"/>
   <tile gid="128"/>
   <tile gid="128"/>
   <tile gid="44"/>
   <tile gid="44"/>
   <tile gid="233"/>
   <tile gid="233"/>
   <tile gid="233"/>
   <tile gid="128"/>
   <tile gid="128"/>
   <tile gid="233"/>
   <tile gid="233"/>
   <tile gid="233"/>
   <tile gid="233"/>
   <tile gid="128"/>
   <tile gid="128"/>
   <tile gid="233"/>
   <tile gid="233"/>
   <tile gid="233"/>
   <tile gid="233"/>
   <tile gid="128"/>
   <tile gid="128"/>
   <tile gid="233"/>
   <tile gid="233"/>
   <tile gid="233"/>
   <tile gid="233"/>
   <tile gid="128"/>
   <tile gid="128"/>
   <tile gid="233"/>
   <tile gid="233"/>
   <tile gid="128"/>
   <tile gid="128"/>
   <tile gid="128"/>
   <tile gid="128"/>
   <tile gid="128"/>
   <tile gid="128"/>
   <tile gid="233"/>
   <tile gid="233"/>
   <tile gid="233"/>
   <tile gid="128"/>
   <tile gid="128"/>
   <tile gid="233"/>
   <tile gid="233"/>
   <tile gid="233"/>
   <tile gid="233"/>
   <tile gid="128"/>
   <tile gid="128"/>
   <tile gid="233"/>
   <tile gid="233"/>
   <tile gid="233"/>
   <tile gid="233"/>
   <tile gid="128"/>
   <tile gid="128"/>
   <tile gid="233"/>
   <tile gid="233"/>
   <tile gid="233"/>
   <tile gid="233"/>
   <tile gid="128"/>
   <tile gid="128"/>
   <tile gid="233"/>
   <tile gid="233"/>
   <tile gid="128"/>
   <tile gid="128"/>
   <tile gid="128"/>
   <tile gid="128"/>
   <tile gid="128"/>
   <tile gid="128"/>
   <tile gid="233"/>
   <tile gid="233"/>
   <tile gid="233"/>
   <tile gid="128"/>
   <tile gid="128"/>
   <tile gid="233"/>
   <tile gid="233"/>
   <tile gid="233"/>
   <tile gid="233"/>
   <tile gid="128"/>
   <tile gid="128"/>
   <tile gid="233"/>
   <tile gid="233"/>
   <tile gid="233"/>
   <tile gid="233"/>
   <tile gid="128"/>
   <tile gid="128"/>
   <tile gid="233"/>
   <tile gid="233"/>
   <tile gid="233"/>
   <tile gid="233"/>
   <tile gid="128"/>
   <tile gid="128"/>
   <tile gid="233"/>
   <tile gid="233"/>
   <tile gid="128"/>
   <tile gid="128"/>
   <tile gid="128"/>
   <tile gid="128"/>
   <tile gid="128"/>
   <tile gid="128"/>
   <tile gid="233"/>
   <tile gid="233"/>
   <tile gid="233"/>
   <tile gid="128"/>
   <tile gid="128"/>
   <tile gid="233"/>
   <tile gid="233"/>
   <tile gid="233"/>
   <tile gid="233"/>
   <tile gid="128"/>
   <tile gid="128"/>
   <tile gid="233"/>
   <tile gid="233"/>
   <tile gid="233"/>
   <tile gid="233"/>
   <tile gid="128"/>
   <tile gid="128"/>
   <tile gid="233"/>
   <tile gid="233"/>
   <tile gid="128"/>
   <tile gid="128"/>
   <tile gid="128"/>
   <tile gid="128"/>
   <tile gid="128"/>
   <tile gid="128"/>
   <tile gid="128"/>
   <tile gid="128"/>
   <tile gid="128"/>
   <tile gid="128"/>
   <tile gid="128"/>
   <tile gid="128"/>
   <tile gid="233"/>
   <tile gid="233"/>
   <tile gid="233"/>
   <tile gid="128"/>
   <tile gid="128"/>
   <tile gid="233"/>
   <tile gid="233"/>
   <tile gid="233"/>
   <tile gid="233"/>
   <tile gid="128"/>
   <tile gid="128"/>
   <tile gid="233"/>
   <tile gid="233"/>
   <tile gid="233"/>
   <tile gid="233"/>
   <tile gid="128"/>
   <tile gid="128"/>
   <tile gid="233"/>
   <tile gid="233"/>
   <tile gid="128"/>
   <tile gid="128"/>
   <tile gid="128"/>
   <tile gid="128"/>
   <tile gid="128"/>
   <tile gid="128"/>
   <tile gid="128"/>
   <tile gid="128"/>
   <tile gid="128"/>
   <tile gid="128"/>
   <tile gid="128"/>
   <tile gid="128"/>
   <tile gid="233"/>
   <tile gid="233"/>
   <tile gid="233"/>
   <tile gid="128"/>
   <tile gid="128"/>
   <tile gid="233"/>
   <tile gid="233"/>
   <tile gid="233"/>
   <tile gid="233"/>
   <tile gid="128"/>
   <tile gid="128"/>
   <tile gid="233"/>
   <tile gid="233"/>
   <tile gid="233"/>
   <tile gid="233"/>
   <tile gid="128"/>
   <tile gid="128"/>
   <tile gid="233"/>
   <tile gid="233"/>
   <tile gid="128"/>
   <tile gid="128"/>
   <tile gid="128"/>
   <tile gid="128"/>
   <tile gid="128"/>
   <tile gid="128"/>
   <tile gid="128"/>
   <tile gid="128"/>
   <tile gid="128"/>
   <tile gid="128"/>
   <tile gid="128"/>
   <tile gid="128"/>
   <tile gid="233"/>
   <tile gid="233"/>
   <tile gid="233"/>
   <tile gid="128"/>
   <tile gid="128"/>
   <tile gid="233"/>
   <tile gid="233"/>
   <tile gid="233"/>
   <tile gid="233"/>
   <tile gid="128"/>
   <tile gid="128"/>
   <tile gid="233"/>
   <tile gid="233"/>
   <tile gid="233"/>
   <tile gid="233"/>
   <tile gid="128"/>
   <tile gid="128"/>
   <tile gid="233"/>
   <tile gid="233"/>
   <tile gid="128"/>
   <tile gid="23"/>
   <tile gid="23"/>
   <tile gid="23"/>
   <tile gid="23"/>
   <tile gid="23"/>
   <tile gid="44"/>
   <tile gid="44"/>
   <tile gid="44"/>
   <tile gid="44"/>
   <tile gid="44"/>
   <tile gid="44"/>
   <tile gid="44"/>
   <tile gid="44"/>
   <tile gid="44"/>
   <tile gid="44"/>
   <tile gid="44"/>
   <tile gid="44"/>
   <tile gid="44"/>
   <tile gid="44"/>
   <tile gid="44"/>
   <tile gid="44"/>
   <tile gid="44"/>
   <tile gid="44"/>
   <tile gid="44"/>
   <tile gid="44"/>
   <tile gid="44"/>
   <tile gid="44"/>
   <tile gid="44"/>
   <tile gid="44"/>
   <tile gid="44"/>
   <tile gid="44"/>
   <tile gid="44"/>
   <tile gid="44"/>
   <tile gid="44"/>
   <tile gid="44"/>
   <tile gid="44"/>
   <tile gid="44"/>
   <tile gid="44"/>
   <tile gid="44"/>
   <tile gid="44"/>
   <tile gid="44"/>
   <tile gid="44"/>
   <tile gid="44"/>
   <tile gid="44"/>
   <tile gid="44"/>
   <tile gid="44"/>
   <tile gid="44"/>
   <tile gid="44"/>
   <tile gid="44"/>
   <tile gid="44"/>
   <tile gid="44"/>
   <tile gid="44"/>
   <tile gid="44"/>
   <tile gid="44"/>
   <tile gid="44"/>
   <tile gid="44"/>
   <tile gid="44"/>
   <tile gid="44"/>
   <tile gid="44"/>
   <tile gid="44"/>
   <tile gid="44"/>
   <tile gid="44"/>
   <tile gid="44"/>
   <tile gid="44"/>
   <tile gid="44"/>
   <tile gid="44"/>
   <tile gid="44"/>
  </data>
 </layer>
 <layer id="7" name="Background 2" width="31" height="18">
  <data>
   <tile/>
   <tile/>
   <tile/>
   <tile/>
   <tile/>
   <tile/>
   <tile/>
   <tile/>
   <tile/>
   <tile gid="296"/>
   <tile gid="297"/>
   <tile gid="110"/>
   <tile/>
   <tile/>
   <tile/>
   <tile gid="296"/>
   <tile gid="297"/>
   <tile/>
   <tile/>
   <tile/>
   <tile/>
   <tile gid="296"/>
   <tile gid="297"/>
   <tile/>
   <tile/>
   <tile/>
   <tile/>
   <tile/>
   <tile/>
   <tile/>
   <tile gid="238"/>
   <tile/>
   <tile/>
   <tile/>
   <tile/>
   <tile/>
   <tile/>
   <tile/>
   <tile/>
   <tile/>
   <tile gid="296"/>
   <tile gid="297"/>
   <tile gid="110"/>
   <tile/>
   <tile/>
   <tile/>
   <tile gid="296"/>
   <tile gid="297"/>
   <tile/>
   <tile/>
   <tile/>
   <tile/>
   <tile gid="296"/>
   <tile gid="297"/>
   <tile/>
   <tile/>
   <tile/>
   <tile/>
   <tile gid="296"/>
   <tile gid="297"/>
   <tile gid="233"/>
   <tile gid="259"/>
   <tile/>
   <tile/>
   <tile/>
   <tile/>
   <tile/>
   <tile/>
   <tile/>
   <tile/>
   <tile/>
   <tile gid="296"/>
   <tile gid="297"/>
   <tile gid="110"/>
   <tile/>
   <tile/>
   <tile/>
   <tile gid="296"/>
   <tile gid="297"/>
   <tile/>
   <tile/>
   <tile/>
   <tile/>
   <tile gid="296"/>
   <tile gid="297"/>
   <tile/>
   <tile/>
   <tile/>
   <tile/>
   <tile gid="296"/>
   <tile gid="297"/>
   <tile gid="233"/>
   <tile gid="280"/>
   <tile/>
   <tile/>
   <tile/>
   <tile/>
   <tile/>
   <tile/>
   <tile/>
   <tile/>
   <tile/>
   <tile gid="296"/>
   <tile gid="297"/>
   <tile gid="110"/>
   <tile/>
   <tile/>
   <tile/>
   <tile gid="296"/>
   <tile gid="297"/>
   <tile/>
   <tile/>
   <tile/>
   <tile/>
   <tile gid="296"/>
   <tile gid="297"/>
   <tile/>
   <tile/>
   <tile/>
   <tile/>
   <tile gid="296"/>
   <tile gid="297"/>
   <tile gid="233"/>
   <tile gid="280"/>
   <tile/>
   <tile/>
   <tile/>
   <tile/>
   <tile/>
   <tile/>
   <tile/>
   <tile/>
   <tile/>
   <tile gid="296"/>
   <tile gid="297"/>
   <tile gid="110"/>
   <tile/>
   <tile/>
   <tile/>
   <tile gid="296"/>
   <tile gid="297"/>
   <tile/>
   <tile/>
   <tile/>
   <tile/>
   <tile gid="296"/>
   <tile gid="297"/>
   <tile/>
   <tile/>
   <tile/>
   <tile/>
   <tile gid="296"/>
   <tile gid="297"/>
   <tile gid="233"/>
   <tile gid="280"/>
   <tile/>
   <tile/>
   <tile/>
   <tile/>
   <tile/>
   <tile/>
   <tile/>
   <tile/>
   <tile/>
   <tile gid="296"/>
   <tile gid="297"/>
   <tile gid="110"/>
   <tile/>
   <tile/>
   <tile/>
   <tile gid="296"/>
   <tile gid="297"/>
   <tile/>
   <tile/>
   <tile/>
   <tile/>
   <tile gid="296"/>
   <tile gid="297"/>
   <tile/>
   <tile/>
   <tile/>
   <tile/>
   <tile gid="296"/>
   <tile gid="297"/>
   <tile gid="233"/>
   <tile gid="280"/>
   <tile/>
   <tile/>
   <tile/>
   <tile/>
   <tile/>
   <tile/>
   <tile/>
   <tile/>
   <tile/>
   <tile gid="296"/>
   <tile gid="297"/>
   <tile gid="110"/>
   <tile/>
   <tile/>
   <tile/>
   <tile gid="296"/>
   <tile gid="297"/>
   <tile/>
   <tile/>
   <tile/>
   <tile/>
   <tile gid="296"/>
   <tile gid="297"/>
   <tile/>
   <tile/>
   <tile/>
   <tile/>
   <tile gid="296"/>
   <tile gid="297"/>
   <tile gid="233"/>
   <tile gid="280"/>
   <tile/>
   <tile/>
   <tile/>
   <tile/>
   <tile/>
   <tile/>
   <tile/>
   <tile/>
   <tile/>
   <tile gid="296"/>
   <tile gid="297"/>
   <tile gid="110"/>
   <tile/>
   <tile/>
   <tile/>
   <tile gid="296"/>
   <tile gid="297"/>
   <tile/>
   <tile/>
   <tile/>
   <tile/>
   <tile gid="296"/>
   <tile gid="297"/>
   <tile/>
   <tile/>
   <tile/>
   <tile/>
   <tile gid="296"/>
   <tile gid="297"/>
   <tile gid="233"/>
   <tile gid="301"/>
   <tile/>
   <tile/>
   <tile/>
   <tile/>
   <tile/>
   <tile/>
   <tile/>
   <tile/>
   <tile/>
   <tile gid="296"/>
   <tile gid="297"/>
   <tile gid="110"/>
   <tile/>
   <tile/>
   <tile/>
   <tile gid="296"/>
   <tile gid="297"/>
   <tile/>
   <tile/>
   <tile/>
   <tile/>
   <tile gid="296"/>
   <tile gid="297"/>
   <tile/>
   <tile/>
   <tile/>
   <tile/>
   <tile gid="296"/>
   <tile gid="297"/>
   <tile gid="233"/>
   <tile/>
   <tile/>
   <tile/>
   <tile/>
   <tile/>
   <tile/>
   <tile/>
   <tile/>
   <tile/>
   <tile/>
   <tile gid="296"/>
   <tile gid="297"/>
   <tile gid="110"/>
   <tile/>
   <tile/>
   <tile/>
   <tile gid="296"/>
   <tile gid="297"/>
   <tile/>
   <tile/>
   <tile/>
   <tile/>
   <tile gid="296"/>
   <tile gid="297"/>
   <tile/>
   <tile/>
   <tile/>
   <tile/>
   <tile gid="296"/>
   <tile gid="297"/>
   <tile gid="233"/>
   <tile/>
   <tile/>
   <tile/>
   <tile/>
   <tile/>
   <tile/>
   <tile gid="297"/>
   <tile/>
   <tile/>
   <tile/>
   <tile gid="296"/>
   <tile gid="297"/>
   <tile gid="110"/>
   <tile/>
   <tile/>
   <tile/>
   <tile gid="296"/>
   <tile gid="297"/>
   <tile/>
   <tile/>
   <tile/>
   <tile/>
   <tile gid="296"/>
   <tile gid="297"/>
   <tile/>
   <tile/>
   <tile/>
   <tile/>
   <tile gid="296"/>
   <tile gid="297"/>
   <tile gid="233"/>
   <tile/>
   <tile/>
   <tile/>
   <tile/>
   <tile/>
   <tile/>
   <tile gid="297"/>
   <tile/>
   <tile/>
   <tile/>
   <tile gid="296"/>
   <tile gid="297"/>
   <tile gid="110"/>
   <tile/>
   <tile/>
   <tile/>
   <tile gid="296"/>
   <tile gid="297"/>
   <tile/>
   <tile/>
   <tile/>
   <tile/>
   <tile gid="296"/>
   <tile gid="297"/>
   <tile/>
   <tile/>
   <tile/>
   <tile/>
   <tile gid="296"/>
   <tile gid="297"/>
   <tile gid="233"/>
   <tile/>
   <tile/>
   <tile/>
   <tile/>
   <tile/>
   <tile/>
   <tile gid="297"/>
   <tile/>
   <tile/>
   <tile/>
   <tile gid="296"/>
   <tile gid="297"/>
   <tile gid="110"/>
   <tile/>
   <tile/>
   <tile/>
   <tile gid="296"/>
   <tile gid="297"/>
   <tile/>
   <tile/>
   <tile/>
   <tile/>
   <tile gid="296"/>
   <tile gid="297"/>
   <tile/>
   <tile/>
   <tile gid="296"/>
   <tile gid="384"/>
   <tile/>
   <tile gid="128"/>
   <tile gid="128"/>
   <tile/>
   <tile/>
   <tile/>
   <tile/>
   <tile/>
   <tile/>
   <tile gid="297"/>
   <tile/>
   <tile/>
   <tile/>
   <tile gid="296"/>
   <tile gid="297"/>
   <tile gid="110"/>
   <tile/>
   <tile/>
   <tile/>
   <tile gid="296"/>
   <tile gid="297"/>
   <tile/>
   <tile/>
   <tile/>
   <tile/>
   <tile gid="296"/>
   <tile gid="297"/>
   <tile/>
   <tile/>
   <tile gid="296"/>
   <tile gid="384"/>
   <tile/>
   <tile gid="128"/>
   <tile gid="128"/>
   <tile/>
   <tile/>
   <tile/>
   <tile/>
   <tile/>
   <tile/>
   <tile gid="297"/>
   <tile/>
   <tile/>
   <tile/>
   <tile gid="296"/>
   <tile gid="297"/>
   <tile gid="110"/>
   <tile/>
   <tile/>
   <tile/>
   <tile gid="296"/>
   <tile gid="297"/>
   <tile/>
   <tile/>
   <tile/>
   <tile/>
   <tile gid="296"/>
   <tile gid="297"/>
   <tile/>
   <tile/>
   <tile gid="296"/>
   <tile gid="384"/>
   <tile/>
   <tile gid="207"/>
   <tile gid="207"/>
   <tile gid="207"/>
   <tile/>
   <tile/>
   <tile/>
   <tile/>
   <tile/>
   <tile gid="297"/>
   <tile/>
   <tile/>
   <tile/>
   <tile gid="296"/>
   <tile gid="297"/>
   <tile gid="297"/>
   <tile/>
   <tile/>
   <tile/>
   <tile gid="296"/>
   <tile gid="297"/>
   <tile/>
   <tile/>
   <tile/>
   <tile/>
   <tile gid="296"/>
   <tile gid="297"/>
   <tile/>
   <tile/>
   <tile gid="296"/>
   <tile gid="207"/>
   <tile gid="207"/>
   <tile gid="207"/>
   <tile/>
   <tile/>
   <tile/>
   <tile/>
   <tile/>
   <tile/>
   <tile/>
   <tile/>
   <tile/>
   <tile/>
   <tile/>
   <tile/>
   <tile/>
   <tile/>
   <tile/>
   <tile/>
   <tile/>
   <tile/>
   <tile/>
   <tile/>
   <tile/>
   <tile/>
   <tile/>
   <tile/>
   <tile/>
   <tile/>
   <tile/>
   <tile/>
   <tile/>
   <tile/>
   <tile/>
   <tile/>
   <tile/>
   <tile/>
   <tile/>
   <tile/>
   <tile/>
   <tile/>
   <tile/>
   <tile/>
   <tile/>
   <tile/>
   <tile/>
   <tile/>
   <tile/>
   <tile/>
   <tile/>
   <tile/>
   <tile/>
   <tile/>
   <tile/>
   <tile/>
   <tile/>
   <tile/>
   <tile/>
   <tile/>
   <tile/>
   <tile/>
   <tile/>
   <tile/>
   <tile/>
   <tile/>
   <tile/>
   <tile/>
  </data>
 </layer>
 <layer id="5" name="Pilars" width="31" height="18" offsetx="-16" offsety="-0.666667">
  <data>
   <tile/>
   <tile/>
   <tile/>
   <tile/>
   <tile/>
   <tile/>
   <tile/>
   <tile/>
   <tile/>
   <tile/>
   <tile gid="113"/>
   <tile gid="132"/>
   <tile/>
   <tile/>
   <tile/>
   <tile/>
   <tile gid="115"/>
   <tile/>
   <tile/>
   <tile/>
   <tile/>
   <tile/>
   <tile gid="117"/>
   <tile/>
   <tile/>
   <tile/>
   <tile/>
   <tile/>
   <tile gid="113"/>
   <tile gid="245"/>
   <tile/>
   <tile/>
   <tile/>
   <tile/>
   <tile/>
   <tile/>
   <tile/>
   <tile/>
   <tile/>
   <tile/>
   <tile/>
   <tile gid="134"/>
   <tile gid="132"/>
   <tile/>
   <tile/>
   <tile/>
   <tile/>
   <tile gid="136"/>
   <tile/>
   <tile/>
   <tile/>
   <tile/>
   <tile/>
   <tile gid="138"/>
   <tile/>
   <tile/>
   <tile/>
   <tile/>
   <tile/>
   <tile gid="134"/>
   <tile gid="245"/>
   <tile/>
   <tile/>
   <tile/>
   <tile/>
   <tile/>
   <tile/>
   <tile/>
   <tile/>
   <tile/>
   <tile/>
   <tile/>
   <tile gid="155"/>
   <tile gid="132"/>
   <tile/>
   <tile/>
   <tile/>
   <tile/>
   <tile gid="157"/>
   <tile/>
   <tile/>
   <tile/>
   <tile gid="248"/>
   <tile/>
   <tile gid="159"/>
   <tile/>
   <tile/>
   <tile/>
   <tile/>
   <tile/>
   <tile gid="155"/>
   <tile gid="247"/>
   <tile/>
   <tile/>
   <tile/>
   <tile/>
   <tile/>
   <tile/>
   <tile/>
   <tile/>
   <tile/>
   <tile/>
   <tile gid="132"/>
   <tile gid="155"/>
   <tile gid="132"/>
   <tile/>
   <tile/>
   <tile/>
   <tile/>
   <tile gid="157"/>
   <tile/>
   <tile/>
   <tile/>
   <tile gid="248"/>
   <tile/>
   <tile gid="159"/>
   <tile/>
   <tile/>
   <tile/>
   <tile/>
   <tile/>
   <tile gid="155"/>
   <tile gid="247"/>
   <tile/>
   <tile/>
   <tile/>
   <tile/>
   <tile/>
   <tile/>
   <tile/>
   <tile/>
   <tile/>
   <tile/>
   <tile gid="132"/>
   <tile gid="155"/>
   <tile gid="132"/>
   <tile/>
   <tile/>
   <tile/>
   <tile/>
   <tile gid="157"/>
   <tile/>
   <tile/>
   <tile/>
   <tile gid="248"/>
   <tile gid="248"/>
   <tile gid="159"/>
   <tile/>
   <tile/>
   <tile/>
   <tile/>
   <tile/>
   <tile gid="155"/>
   <tile gid="247"/>
   <tile/>
   <tile/>
   <tile/>
   <tile/>
   <tile/>
   <tile/>
   <tile/>
   <tile/>
   <tile/>
   <tile/>
   <tile gid="132"/>
   <tile gid="155"/>
   <tile gid="132"/>
   <tile/>
   <tile/>
   <tile/>
   <tile/>
   <tile gid="157"/>
   <tile/>
   <tile/>
   <tile/>
   <tile/>
   <tile gid="248"/>
   <tile gid="159"/>
   <tile/>
   <tile/>
   <tile/>
   <tile/>
   <tile/>
   <tile gid="155"/>
   <tile gid="247"/>
   <tile/>
   <tile/>
   <tile/>
   <tile/>
   <tile/>
   <tile/>
   <tile/>
   <tile/>
   <tile/>
   <tile/>
   <tile gid="132"/>
   <tile gid="155"/>
   <tile gid="132"/>
   <tile/>
   <tile/>
   <tile/>
   <tile/>
   <tile gid="157"/>
   <tile/>
   <tile/>
   <tile/>
   <tile/>
   <tile gid="248"/>
   <tile gid="159"/>
   <tile/>
   <tile/>
   <tile/>
   <tile/>
   <tile/>
   <tile gid="155"/>
   <tile gid="247"/>
   <tile/>
   <tile/>
   <tile/>
   <tile/>
   <tile/>
   <tile/>
   <tile/>
   <tile/>
   <tile/>
   <tile/>
   <tile gid="132"/>
   <tile gid="155"/>
   <tile gid="132"/>
   <tile/>
   <tile/>
   <tile/>
   <tile/>
   <tile gid="157"/>
   <tile/>
   <tile/>
   <tile/>
   <tile/>
   <tile gid="248"/>
   <tile gid="159"/>
   <tile/>
   <tile/>
   <tile/>
   <tile/>
   <tile/>
   <tile gid="155"/>
   <tile gid="247"/>
   <tile/>
   <tile/>
   <tile/>
   <tile/>
   <tile/>
   <tile/>
   <tile/>
   <tile/>
   <tile/>
   <tile/>
   <tile gid="132"/>
   <tile gid="155"/>
   <tile gid="132"/>
   <tile/>
   <tile/>
   <tile/>
   <tile/>
   <tile gid="157"/>
   <tile/>
   <tile/>
   <tile/>
   <tile/>
   <tile/>
   <tile gid="159"/>
   <tile/>
   <tile/>
   <tile/>
   <tile/>
   <tile/>
   <tile gid="155"/>
   <tile gid="247"/>
   <tile/>
   <tile/>
   <tile/>
   <tile/>
   <tile/>
   <tile/>
   <tile/>
   <tile/>
   <tile/>
   <tile/>
   <tile/>
   <tile gid="155"/>
   <tile gid="132"/>
   <tile/>
   <tile/>
   <tile/>
   <tile/>
   <tile gid="157"/>
   <tile/>
   <tile/>
   <tile/>
   <tile/>
   <tile/>
   <tile gid="159"/>
   <tile/>
   <tile/>
   <tile/>
   <tile/>
   <tile/>
   <tile gid="155"/>
   <tile gid="247"/>
   <tile/>
   <tile/>
   <tile/>
   <tile/>
   <tile/>
   <tile/>
   <tile/>
   <tile/>
   <tile/>
   <tile/>
   <tile/>
   <tile gid="155"/>
   <tile gid="132"/>
   <tile/>
   <tile/>
   <tile/>
   <tile/>
   <tile gid="178"/>
   <tile/>
   <tile/>
   <tile gid="248"/>
   <tile gid="248"/>
   <tile gid="248"/>
   <tile gid="159"/>
   <tile/>
   <tile/>
   <tile/>
   <tile/>
   <tile/>
   <tile gid="155"/>
   <tile gid="247"/>
   <tile/>
   <tile/>
   <tile/>
   <tile/>
   <tile/>
   <tile/>
   <tile/>
   <tile/>
   <tile/>
   <tile/>
   <tile/>
   <tile gid="155"/>
   <tile gid="132"/>
   <tile/>
   <tile/>
   <tile/>
   <tile/>
   <tile gid="178"/>
   <tile/>
   <tile/>
   <tile/>
   <tile/>
   <tile/>
   <tile gid="159"/>
   <tile/>
   <tile/>
   <tile/>
   <tile/>
   <tile/>
   <tile gid="155"/>
   <tile gid="247"/>
   <tile/>
   <tile/>
   <tile/>
   <tile/>
   <tile/>
   <tile/>
   <tile/>
   <tile/>
   <tile/>
   <tile/>
   <tile/>
   <tile gid="155"/>
   <tile gid="132"/>
   <tile/>
   <tile/>
   <tile/>
   <tile/>
   <tile gid="178"/>
   <tile/>
   <tile/>
   <tile/>
   <tile/>
   <tile/>
   <tile gid="159"/>
   <tile/>
   <tile/>
   <tile/>
   <tile/>
   <tile/>
   <tile gid="176"/>
   <tile gid="247"/>
   <tile/>
   <tile/>
   <tile/>
   <tile/>
   <tile/>
   <tile/>
   <tile/>
   <tile/>
   <tile/>
   <tile/>
   <tile/>
   <tile gid="155"/>
   <tile gid="132"/>
   <tile/>
   <tile/>
   <tile/>
   <tile/>
   <tile gid="178"/>
   <tile/>
   <tile/>
   <tile/>
   <tile/>
   <tile/>
   <tile gid="180"/>
   <tile/>
   <tile/>
   <tile/>
   <tile/>
   <tile/>
   <tile gid="197"/>
   <tile gid="247"/>
   <tile/>
   <tile/>
   <tile/>
   <tile/>
   <tile/>
   <tile/>
   <tile/>
   <tile/>
   <tile/>
   <tile/>
   <tile/>
   <tile gid="132"/>
   <tile gid="132"/>
   <tile/>
   <tile/>
   <tile/>
   <tile/>
   <tile gid="199"/>
   <tile/>
   <tile/>
   <tile/>
   <tile/>
   <tile/>
   <tile gid="201"/>
   <tile/>
   <tile/>
   <tile/>
   <tile/>
   <tile gid="207"/>
   <tile gid="218"/>
   <tile gid="207"/>
   <tile gid="207"/>
   <tile/>
   <tile/>
   <tile/>
   <tile/>
   <tile/>
   <tile/>
   <tile/>
   <tile/>
   <tile/>
   <tile/>
   <tile gid="132"/>
   <tile gid="132"/>
   <tile/>
   <tile/>
   <tile/>
   <tile/>
   <tile gid="220"/>
   <tile/>
   <tile/>
   <tile/>
   <tile/>
   <tile/>
   <tile gid="222"/>
   <tile/>
   <tile/>
   <tile/>
   <tile gid="207"/>
   <tile gid="207"/>
   <tile/>
   <tile/>
   <tile/>
   <tile/>
   <tile/>
   <tile/>
   <tile/>
   <tile/>
   <tile/>
   <tile/>
   <tile/>
   <tile/>
   <tile/>
   <tile/>
   <tile/>
   <tile/>
   <tile/>
   <tile/>
   <tile/>
   <tile/>
   <tile/>
   <tile/>
   <tile/>
   <tile/>
   <tile/>
   <tile/>
   <tile/>
   <tile/>
   <tile/>
   <tile/>
   <tile/>
   <tile/>
   <tile/>
   <tile/>
   <tile/>
   <tile/>
   <tile/>
   <tile/>
   <tile/>
   <tile/>
   <tile/>
   <tile/>
   <tile/>
   <tile/>
   <tile/>
   <tile/>
   <tile/>
   <tile/>
   <tile/>
   <tile/>
   <tile/>
   <tile/>
   <tile/>
   <tile/>
   <tile/>
   <tile/>
   <tile/>
   <tile/>
   <tile/>
   <tile/>
   <tile/>
   <tile/>
   <tile/>
   <tile/>
   <tile/>
  </data>
 </layer>
 <layer id="3" name="Decorations" width="31" height="18">
  <data>
   <tile/>
   <tile/>
   <tile/>
   <tile/>
   <tile/>
   <tile/>
   <tile/>
   <tile/>
   <tile/>
   <tile gid="192"/>
   <tile gid="192"/>
   <tile gid="192"/>
   <tile gid="192"/>
   <tile gid="192"/>
   <tile/>
   <tile/>
   <tile/>
   <tile/>
   <tile/>
   <tile/>
   <tile/>
   <tile/>
   <tile/>
   <tile/>
   <tile/>
   <tile/>
   <tile/>
   <tile/>
   <tile/>
   <tile/>
   <tile/>
   <tile/>
   <tile/>
   <tile/>
   <tile/>
   <tile/>
   <tile/>
   <tile/>
   <tile/>
   <tile/>
   <tile/>
   <tile/>
   <tile/>
   <tile/>
   <tile/>
   <tile/>
   <tile/>
   <tile/>
   <tile/>
   <tile/>
   <tile/>
   <tile/>
   <tile/>
   <tile/>
   <tile/>
   <tile/>
   <tile/>
   <tile/>
   <tile/>
   <tile/>
   <tile/>
   <tile/>
   <tile/>
   <tile/>
   <tile/>
   <tile/>
   <tile/>
   <tile/>
   <tile/>
   <tile/>
   <tile/>
   <tile/>
   <tile/>
   <tile/>
   <tile/>
   <tile gid="325"/>
   <tile gid="244"/>
   <tile gid="131"/>
   <tile/>
   <tile/>
   <tile/>
   <tile gid="325"/>
   <tile/>
   <tile/>
   <tile/>
   <tile/>
   <tile/>
   <tile gid="325"/>
   <tile/>
   <tile/>
   <tile/>
   <tile/>
   <tile/>
   <tile/>
   <tile/>
   <tile/>
   <tile/>
   <tile/>
   <tile/>
   <tile/>
   <tile/>
   <tile/>
   <tile/>
   <tile/>
   <tile/>
   <tile/>
   <tile gid="346"/>
   <tile gid="244"/>
   <tile gid="131"/>
   <tile/>
   <tile/>
   <tile/>
   <tile gid="346"/>
   <tile/>
   <tile/>
   <tile/>
   <tile/>
   <tile/>
   <tile gid="346"/>
   <tile/>
   <tile/>
   <tile/>
   <tile/>
   <tile/>
   <tile/>
   <tile/>
   <tile/>
   <tile/>
   <tile/>
   <tile/>
   <tile/>
   <tile gid="286"/>
   <tile/>
   <tile/>
   <tile/>
   <tile/>
   <tile/>
   <tile/>
   <tile/>
   <tile gid="131"/>
   <tile/>
   <tile/>
   <tile/>
   <tile/>
   <tile/>
   <tile/>
   <tile/>
   <tile/>
   <tile/>
   <tile/>
   <tile/>
   <tile/>
   <tile/>
   <tile/>
   <tile/>
   <tile/>
   <tile/>
   <tile/>
   <tile/>
   <tile/>
   <tile/>
   <tile/>
   <tile gid="307"/>
   <tile/>
   <tile/>
   <tile/>
   <tile/>
   <tile/>
   <tile/>
   <tile/>
   <tile gid="131"/>
   <tile/>
   <tile/>
   <tile/>
   <tile/>
   <tile/>
   <tile/>
   <tile/>
   <tile/>
   <tile/>
   <tile/>
   <tile/>
   <tile/>
   <tile/>
   <tile/>
   <tile/>
   <tile/>
   <tile/>
   <tile/>
   <tile/>
   <tile/>
   <tile/>
   <tile/>
   <tile gid="215"/>
   <tile/>
   <tile/>
   <tile/>
   <tile/>
   <tile/>
   <tile/>
   <tile/>
   <tile/>
   <tile/>
   <tile/>
   <tile/>
   <tile/>
   <tile/>
   <tile/>
   <tile/>
   <tile/>
   <tile/>
   <tile/>
   <tile/>
   <tile/>
   <tile gid="289"/>
   <tile gid="369"/>
   <tile/>
   <tile/>
   <tile/>
   <tile/>
   <tile/>
   <tile/>
   <tile/>
   <tile gid="192"/>
   <tile gid="215"/>
   <tile/>
   <tile/>
   <tile/>
   <tile/>
   <tile gid="207"/>
   <tile gid="207"/>
   <tile gid="207"/>
   <tile/>
   <tile/>
   <tile/>
   <tile/>
   <tile/>
   <tile/>
   <tile/>
   <tile/>
   <tile/>
   <tile/>
   <tile/>
   <tile/>
   <tile/>
   <tile gid="310"/>
   <tile gid="369"/>
   <tile/>
   <tile/>
   <tile/>
   <tile/>
   <tile/>
   <tile/>
   <tile/>
   <tile/>
   <tile/>
   <tile/>
   <tile/>
   <tile/>
   <tile/>
   <tile/>
   <tile/>
   <tile/>
   <tile/>
   <tile/>
   <tile/>
   <tile/>
   <tile/>
   <tile/>
   <tile/>
   <tile/>
   <tile/>
   <tile/>
   <tile/>
   <tile/>
   <tile/>
   <tile/>
   <tile/>
   <tile/>
   <tile/>
   <tile/>
   <tile/>
   <tile/>
   <tile/>
   <tile/>
   <tile/>
   <tile/>
   <tile/>
   <tile/>
   <tile/>
   <tile/>
   <tile/>
   <tile/>
   <tile/>
   <tile/>
   <tile/>
   <tile/>
   <tile/>
   <tile/>
   <tile/>
   <tile/>
   <tile/>
   <tile/>
   <tile/>
   <tile/>
   <tile/>
   <tile/>
   <tile/>
   <tile/>
   <tile/>
   <tile/>
   <tile/>
   <tile/>
   <tile/>
   <tile/>
   <tile/>
   <tile/>
   <tile/>
   <tile/>
   <tile/>
   <tile/>
   <tile/>
   <tile/>
   <tile/>
   <tile/>
   <tile/>
   <tile/>
   <tile/>
   <tile/>
   <tile/>
   <tile/>
   <tile/>
   <tile/>
   <tile/>
   <tile/>
   <tile/>
   <tile/>
   <tile/>
   <tile/>
   <tile/>
   <tile/>
   <tile/>
   <tile/>
   <tile/>
   <tile/>
   <tile/>
   <tile/>
   <tile/>
   <tile/>
   <tile/>
   <tile/>
   <tile/>
   <tile/>
   <tile/>
   <tile/>
   <tile/>
   <tile/>
   <tile/>
   <tile/>
   <tile/>
   <tile/>
   <tile/>
   <tile/>
   <tile/>
   <tile/>
   <tile/>
   <tile/>
   <tile/>
   <tile/>
   <tile/>
   <tile/>
   <tile/>
   <tile/>
   <tile/>
   <tile/>
   <tile/>
   <tile gid="85"/>
   <tile gid="192"/>
   <tile/>
   <tile/>
   <tile/>
   <tile/>
   <tile/>
   <tile/>
   <tile/>
   <tile/>
   <tile/>
   <tile/>
   <tile/>
   <tile/>
   <tile/>
   <tile/>
   <tile/>
   <tile/>
   <tile/>
   <tile/>
   <tile/>
   <tile/>
   <tile/>
   <tile/>
   <tile/>
   <tile/>
   <tile/>
   <tile/>
   <tile/>
   <tile/>
   <tile/>
   <tile/>
   <tile/>
   <tile/>
   <tile/>
   <tile/>
   <tile/>
   <tile/>
   <tile/>
   <tile/>
   <tile/>
   <tile/>
   <tile/>
   <tile/>
   <tile/>
   <tile/>
   <tile/>
   <tile/>
   <tile/>
   <tile/>
   <tile/>
   <tile/>
   <tile/>
   <tile/>
   <tile/>
   <tile/>
   <tile/>
   <tile/>
   <tile/>
   <tile/>
   <tile gid="289"/>
   <tile/>
   <tile/>
   <tile/>
   <tile/>
   <tile gid="286"/>
   <tile/>
   <tile gid="284"/>
   <tile gid="285"/>
   <tile gid="265"/>
   <tile gid="288"/>
   <tile gid="265"/>
   <tile gid="286"/>
   <tile gid="265"/>
   <tile/>
   <tile/>
   <tile/>
   <tile gid="284"/>
   <tile gid="285"/>
   <tile/>
   <tile/>
   <tile gid="288"/>
   <tile/>
   <tile/>
   <tile/>
   <tile/>
   <tile/>
   <tile/>
   <tile/>
   <tile/>
   <tile/>
   <tile gid="310"/>
   <tile/>
   <tile/>
   <tile/>
   <tile/>
   <tile gid="307"/>
   <tile/>
   <tile gid="305"/>
   <tile gid="306"/>
   <tile gid="265"/>
   <tile gid="309"/>
   <tile gid="265"/>
   <tile gid="307"/>
   <tile gid="265"/>
   <tile/>
   <tile/>
   <tile/>
   <tile gid="305"/>
   <tile gid="306"/>
   <tile/>
   <tile/>
   <tile gid="309"/>
   <tile/>
   <tile/>
   <tile/>
   <tile/>
   <tile/>
   <tile/>
   <tile/>
   <tile/>
   <tile/>
   <tile/>
   <tile/>
   <tile/>
   <tile/>
   <tile gid="215"/>
   <tile gid="215"/>
   <tile gid="215"/>
   <tile gid="215"/>
   <tile gid="215"/>
   <tile gid="215"/>
   <tile gid="215"/>
   <tile gid="215"/>
   <tile gid="215"/>
   <tile gid="215"/>
   <tile/>
   <tile/>
   <tile/>
   <tile/>
   <tile/>
   <tile/>
   <tile/>
   <tile/>
   <tile/>
   <tile/>
   <tile/>
   <tile/>
   <tile/>
   <tile/>
   <tile/>
   <tile/>
   <tile/>
   <tile/>
   <tile/>
   <tile/>
   <tile/>
   <tile gid="215"/>
   <tile gid="215"/>
   <tile gid="215"/>
   <tile gid="215"/>
   <tile gid="215"/>
   <tile gid="215"/>
   <tile gid="215"/>
   <tile gid="215"/>
   <tile gid="215"/>
   <tile gid="215"/>
   <tile/>
   <tile/>
   <tile/>
   <tile/>
   <tile/>
   <tile/>
   <tile/>
   <tile/>
   <tile/>
   <tile/>
   <tile/>
   <tile/>
   <tile/>
   <tile/>
   <tile/>
  </data>
 </layer>
 <layer id="8" name="Decorations 2" width="31" height="18">
  <data>
   <tile/>
   <tile/>
   <tile/>
   <tile/>
   <tile/>
   <tile/>
   <tile/>
   <tile/>
   <tile/>
   <tile/>
   <tile/>
   <tile/>
   <tile/>
   <tile/>
   <tile/>
   <tile/>
   <tile/>
   <tile/>
   <tile/>
   <tile/>
   <tile/>
   <tile/>
   <tile/>
   <tile/>
   <tile/>
   <tile/>
   <tile/>
   <tile/>
   <tile/>
   <tile/>
   <tile/>
   <tile/>
   <tile/>
   <tile/>
   <tile/>
   <tile/>
   <tile/>
   <tile/>
   <tile/>
   <tile/>
   <tile/>
   <tile/>
   <tile/>
   <tile/>
   <tile/>
   <tile/>
   <tile/>
   <tile/>
   <tile/>
   <tile/>
   <tile/>
   <tile/>
   <tile/>
   <tile/>
   <tile/>
   <tile/>
   <tile/>
   <tile/>
   <tile/>
   <tile/>
   <tile/>
   <tile/>
   <tile/>
   <tile/>
   <tile/>
   <tile/>
   <tile/>
   <tile/>
   <tile/>
   <tile/>
   <tile/>
   <tile/>
   <tile/>
   <tile/>
   <tile/>
   <tile/>
   <tile/>
   <tile/>
   <tile/>
   <tile/>
   <tile/>
   <tile/>
   <tile/>
   <tile/>
   <tile/>
   <tile/>
   <tile/>
   <tile/>
   <tile/>
   <tile/>
   <tile/>
   <tile/>
   <tile/>
   <tile/>
   <tile/>
   <tile/>
   <tile/>
   <tile/>
   <tile/>
   <tile/>
   <tile/>
   <tile/>
   <tile/>
   <tile/>
   <tile/>
   <tile/>
   <tile/>
   <tile/>
   <tile/>
   <tile/>
   <tile/>
   <tile/>
   <tile/>
   <tile/>
   <tile/>
   <tile/>
   <tile/>
   <tile/>
   <tile/>
   <tile/>
   <tile/>
   <tile/>
   <tile/>
   <tile/>
   <tile/>
   <tile/>
   <tile/>
   <tile/>
   <tile/>
   <tile/>
   <tile/>
   <tile/>
   <tile/>
   <tile/>
   <tile/>
   <tile/>
   <tile/>
   <tile/>
   <tile/>
   <tile/>
   <tile/>
   <tile/>
   <tile/>
   <tile/>
   <tile/>
   <tile/>
   <tile/>
   <tile/>
   <tile/>
   <tile/>
   <tile/>
   <tile/>
   <tile/>
   <tile/>
   <tile/>
   <tile/>
   <tile/>
   <tile/>
   <tile/>
   <tile/>
   <tile/>
   <tile/>
   <tile/>
   <tile/>
   <tile/>
   <tile/>
   <tile/>
   <tile/>
   <tile/>
   <tile/>
   <tile/>
   <tile/>
   <tile/>
   <tile/>
   <tile/>
   <tile/>
   <tile/>
   <tile/>
   <tile/>
   <tile/>
   <tile/>
   <tile/>
   <tile/>
   <tile/>
   <tile/>
   <tile/>
   <tile/>
   <tile/>
   <tile/>
   <tile/>
   <tile/>
   <tile/>
   <tile/>
   <tile/>
   <tile/>
   <tile/>
   <tile/>
   <tile/>
   <tile/>
   <tile/>
   <tile/>
   <tile/>
   <tile/>
   <tile/>
   <tile/>
   <tile/>
   <tile/>
   <tile/>
   <tile/>
   <tile/>
   <tile/>
   <tile/>
   <tile/>
   <tile/>
   <tile/>
   <tile/>
   <tile/>
   <tile/>
   <tile/>
   <tile/>
   <tile/>
   <tile/>
   <tile/>
   <tile/>
   <tile/>
   <tile/>
   <tile/>
   <tile/>
   <tile/>
   <tile/>
   <tile/>
   <tile/>
   <tile/>
   <tile/>
   <tile/>
   <tile/>
   <tile/>
   <tile/>
   <tile/>
   <tile/>
   <tile/>
   <tile/>
   <tile/>
   <tile/>
   <tile/>
   <tile/>
   <tile/>
   <tile/>
   <tile/>
   <tile/>
   <tile/>
   <tile/>
   <tile/>
   <tile/>
   <tile/>
   <tile/>
   <tile/>
   <tile/>
   <tile/>
   <tile/>
   <tile/>
   <tile/>
   <tile/>
   <tile/>
   <tile/>
   <tile/>
   <tile/>
   <tile/>
   <tile/>
   <tile/>
   <tile/>
   <tile/>
   <tile/>
   <tile/>
   <tile/>
   <tile/>
   <tile/>
   <tile/>
   <tile/>
   <tile/>
   <tile/>
   <tile/>
   <tile/>
   <tile/>
   <tile/>
   <tile/>
   <tile/>
   <tile/>
   <tile/>
   <tile/>
   <tile/>
   <tile/>
   <tile/>
   <tile/>
   <tile/>
   <tile/>
   <tile/>
   <tile/>
   <tile/>
   <tile/>
   <tile/>
   <tile/>
   <tile/>
   <tile/>
   <tile/>
   <tile/>
   <tile/>
   <tile/>
   <tile/>
   <tile/>
   <tile/>
   <tile/>
   <tile/>
   <tile/>
   <tile/>
   <tile/>
   <tile/>
   <tile/>
   <tile/>
   <tile/>
   <tile/>
   <tile/>
   <tile/>
   <tile/>
   <tile/>
   <tile/>
   <tile/>
   <tile/>
   <tile/>
   <tile/>
   <tile/>
   <tile/>
   <tile/>
   <tile/>
   <tile/>
   <tile/>
   <tile/>
   <tile/>
   <tile/>
   <tile/>
   <tile/>
   <tile/>
   <tile/>
   <tile/>
   <tile/>
   <tile/>
   <tile/>
   <tile/>
   <tile/>
   <tile/>
   <tile/>
   <tile/>
   <tile/>
   <tile/>
   <tile/>
   <tile/>
   <tile/>
   <tile/>
   <tile/>
   <tile/>
   <tile/>
   <tile/>
   <tile/>
   <tile/>
   <tile/>
   <tile/>
   <tile/>
   <tile/>
   <tile/>
   <tile/>
   <tile/>
   <tile/>
   <tile/>
   <tile/>
   <tile/>
   <tile/>
   <tile/>
   <tile/>
   <tile/>
   <tile/>
   <tile/>
   <tile/>
   <tile/>
   <tile/>
   <tile/>
   <tile/>
   <tile/>
   <tile/>
   <tile/>
   <tile/>
   <tile/>
   <tile/>
   <tile/>
   <tile/>
   <tile/>
   <tile/>
   <tile/>
   <tile/>
   <tile/>
   <tile/>
   <tile/>
   <tile/>
   <tile/>
   <tile/>
   <tile/>
   <tile/>
   <tile/>
   <tile/>
   <tile/>
   <tile/>
   <tile/>
   <tile/>
   <tile/>
   <tile/>
   <tile/>
   <tile/>
   <tile/>
   <tile/>
   <tile/>
   <tile/>
   <tile/>
   <tile/>
   <tile/>
   <tile/>
   <tile/>
   <tile/>
   <tile/>
   <tile/>
   <tile/>
   <tile/>
   <tile/>
   <tile/>
   <tile/>
   <tile/>
   <tile/>
   <tile/>
   <tile/>
   <tile/>
   <tile/>
   <tile/>
   <tile/>
   <tile/>
   <tile/>
   <tile/>
   <tile/>
   <tile/>
   <tile/>
   <tile/>
   <tile/>
   <tile/>
   <tile/>
   <tile/>
   <tile/>
   <tile/>
   <tile gid="287"/>
   <tile/>
   <tile/>
   <tile/>
   <tile/>
   <tile/>
   <tile/>
   <tile/>
   <tile/>
   <tile/>
   <tile/>
   <tile/>
   <tile/>
   <tile/>
   <tile/>
   <tile/>
   <tile/>
   <tile/>
   <tile/>
   <tile/>
   <tile/>
   <tile/>
   <tile/>
   <tile/>
   <tile/>
   <tile/>
   <tile/>
   <tile/>
   <tile/>
   <tile/>
   <tile/>
   <tile gid="308"/>
   <tile/>
   <tile/>
   <tile/>
   <tile/>
   <tile/>
   <tile/>
   <tile/>
   <tile/>
   <tile/>
   <tile/>
   <tile/>
   <tile/>
   <tile/>
   <tile/>
   <tile/>
   <tile/>
   <tile/>
   <tile/>
   <tile/>
   <tile/>
   <tile/>
   <tile/>
   <tile/>
   <tile/>
   <tile/>
   <tile/>
   <tile/>
   <tile/>
   <tile/>
   <tile/>
   <tile/>
   <tile/>
   <tile/>
   <tile/>
   <tile/>
   <tile/>
   <tile/>
   <tile/>
   <tile/>
   <tile/>
   <tile/>
   <tile/>
   <tile/>
   <tile/>
   <tile/>
   <tile/>
   <tile/>
   <tile/>
   <tile/>
   <tile/>
   <tile/>
   <tile/>
   <tile/>
   <tile/>
   <tile/>
   <tile/>
   <tile/>
   <tile/>
   <tile/>
   <tile/>
   <tile/>
   <tile/>
   <tile/>
   <tile/>
   <tile/>
   <tile/>
   <tile/>
   <tile/>
   <tile/>
   <tile/>
   <tile/>
   <tile/>
  </data>
 </layer>
 <layer id="2" name="Player Interactable" width="31" height="18">
  <properties>
   <property name="isSolid" type="bool" value="true"/>
  </properties>
  <data>
   <tile/>
   <tile/>
   <tile/>
   <tile/>
   <tile/>
   <tile/>
   <tile gid="26"/>
   <tile gid="65"/>
   <tile gid="65"/>
   <tile gid="65"/>
   <tile gid="65"/>
   <tile gid="65"/>
   <tile gid="65"/>
   <tile gid="65"/>
   <tile gid="65"/>
   <tile gid="65"/>
   <tile gid="65"/>
   <tile gid="65"/>
   <tile gid="65"/>
   <tile gid="65"/>
   <tile gid="65"/>
   <tile gid="65"/>
   <tile gid="65"/>
   <tile gid="65"/>
   <tile gid="65"/>
   <tile gid="65"/>
   <tile gid="65"/>
   <tile gid="65"/>
   <tile gid="65"/>
   <tile gid="65"/>
   <tile gid="65"/>
   <tile/>
   <tile/>
   <tile/>
   <tile/>
   <tile/>
   <tile/>
   <tile gid="46"/>
   <tile/>
   <tile/>
   <tile gid="191"/>
   <tile gid="191"/>
   <tile gid="191"/>
   <tile gid="191"/>
   <tile gid="191"/>
   <tile/>
   <tile/>
   <tile/>
   <tile/>
   <tile/>
   <tile/>
   <tile/>
   <tile/>
   <tile/>
   <tile/>
   <tile/>
   <tile/>
   <tile/>
   <tile/>
   <tile/>
   <tile/>
   <tile/>
   <tile/>
   <tile/>
   <tile/>
   <tile/>
   <tile/>
   <tile/>
   <tile gid="46"/>
   <tile/>
   <tile/>
   <tile gid="191"/>
   <tile gid="191"/>
   <tile gid="191"/>
   <tile gid="191"/>
   <tile gid="191"/>
   <tile/>
   <tile/>
   <tile/>
   <tile/>
   <tile/>
   <tile/>
   <tile/>
   <tile/>
   <tile/>
   <tile/>
   <tile/>
   <tile/>
   <tile/>
   <tile/>
   <tile/>
   <tile/>
   <tile/>
   <tile/>
   <tile/>
   <tile/>
   <tile/>
   <tile/>
   <tile/>
   <tile gid="46"/>
   <tile/>
   <tile/>
   <tile gid="191"/>
   <tile gid="191"/>
   <tile gid="191"/>
   <tile gid="191"/>
   <tile gid="191"/>
   <tile/>
   <tile/>
   <tile/>
   <tile/>
   <tile/>
   <tile/>
   <tile/>
   <tile/>
   <tile/>
   <tile/>
   <tile/>
   <tile/>
   <tile/>
   <tile/>
   <tile/>
   <tile/>
   <tile/>
   <tile/>
   <tile/>
   <tile/>
   <tile/>
   <tile/>
   <tile/>
   <tile gid="46"/>
   <tile/>
   <tile/>
   <tile gid="191"/>
   <tile gid="191"/>
   <tile gid="191"/>
   <tile gid="191"/>
   <tile gid="191"/>
   <tile/>
   <tile/>
   <tile/>
   <tile/>
   <tile/>
   <tile/>
   <tile/>
   <tile/>
   <tile/>
   <tile/>
   <tile/>
   <tile/>
   <tile/>
   <tile/>
   <tile/>
   <tile/>
   <tile/>
   <tile gid="65"/>
   <tile gid="65"/>
   <tile gid="65"/>
   <tile gid="27"/>
   <tile/>
   <tile/>
   <tile gid="86"/>
   <tile gid="87"/>
   <tile gid="88"/>
   <tile gid="191"/>
   <tile gid="191"/>
   <tile gid="191"/>
   <tile gid="191"/>
   <tile gid="191"/>
   <tile/>
   <tile/>
   <tile/>
   <tile/>
   <tile/>
   <tile/>
   <tile/>
   <tile/>
   <tile/>
   <tile/>
   <tile/>
   <tile/>
   <tile/>
   <tile/>
   <tile/>
   <tile/>
   <tile/>
   <tile gid="85"/>
   <tile gid="85"/>
   <tile gid="85"/>
   <tile gid="43"/>
   <tile/>
   <tile/>
   <tile gid="25"/>
   <tile gid="110"/>
   <tile/>
   <tile gid="191"/>
   <tile gid="191"/>
   <tile gid="191"/>
   <tile gid="191"/>
   <tile gid="191"/>
   <tile/>
   <tile/>
   <tile/>
   <tile/>
   <tile/>
   <tile/>
   <tile/>
   <tile/>
   <tile/>
   <tile/>
   <tile/>
   <tile gid="348"/>
   <tile gid="348"/>
   <tile gid="348"/>
   <tile gid="348"/>
   <tile gid="348"/>
   <tile gid="348"/>
   <tile/>
   <tile/>
   <tile/>
   <tile gid="22"/>
   <tile/>
   <tile/>
   <tile gid="25"/>
   <tile gid="249"/>
   <tile gid="111"/>
   <tile gid="191"/>
   <tile gid="191"/>
   <tile gid="191"/>
   <tile gid="349"/>
   <tile gid="349"/>
   <tile gid="349"/>
   <tile/>
   <tile/>
   <tile/>
   <tile/>
   <tile/>
   <tile/>
   <tile/>
   <tile/>
   <tile/>
   <tile/>
   <tile gid="86"/>
   <tile gid="87"/>
   <tile gid="87"/>
   <tile gid="87"/>
   <tile gid="87"/>
   <tile gid="43"/>
   <tile/>
   <tile/>
   <tile/>
   <tile gid="22"/>
   <tile/>
   <tile/>
   <tile gid="25"/>
   <tile/>
   <tile/>
   <tile gid="191"/>
   <tile gid="191"/>
   <tile gid="86"/>
   <tile gid="87"/>
   <tile gid="88"/>
   <tile/>
   <tile/>
   <tile/>
   <tile/>
   <tile/>
   <tile/>
   <tile/>
   <tile/>
   <tile/>
   <tile/>
   <tile/>
   <tile/>
   <tile/>
   <tile/>
   <tile/>
   <tile/>
   <tile gid="43"/>
   <tile/>
   <tile/>
   <tile/>
   <tile gid="43"/>
   <tile/>
   <tile/>
   <tile gid="25"/>
   <tile/>
   <tile/>
   <tile gid="191"/>
   <tile gid="191"/>
   <tile gid="191"/>
   <tile gid="191"/>
   <tile gid="191"/>
   <tile gid="191"/>
   <tile gid="191"/>
   <tile gid="191"/>
   <tile gid="191"/>
   <tile/>
   <tile/>
   <tile/>
   <tile/>
   <tile/>
   <tile/>
   <tile/>
   <tile/>
   <tile/>
   <tile/>
   <tile/>
   <tile/>
   <tile gid="43"/>
   <tile/>
   <tile/>
   <tile/>
   <tile gid="64"/>
   <tile gid="65"/>
   <tile gid="65"/>
   <tile gid="67"/>
   <tile/>
   <tile/>
   <tile gid="191"/>
   <tile gid="191"/>
   <tile gid="191"/>
   <tile gid="191"/>
   <tile gid="191"/>
   <tile/>
   <tile/>
   <tile/>
   <tile gid="86"/>
   <tile gid="87"/>
   <tile gid="87"/>
   <tile gid="88"/>
   <tile/>
   <tile/>
   <tile/>
   <tile/>
   <tile/>
   <tile/>
   <tile/>
   <tile/>
   <tile/>
   <tile gid="64"/>
   <tile/>
   <tile/>
   <tile gid="215"/>
   <tile gid="215"/>
   <tile gid="215"/>
   <tile gid="215"/>
   <tile gid="215"/>
   <tile/>
   <tile/>
   <tile gid="191"/>
   <tile gid="191"/>
   <tile gid="191"/>
   <tile gid="191"/>
   <tile gid="191"/>
   <tile/>
   <tile/>
   <tile/>
   <tile/>
   <tile/>
   <tile/>
   <tile/>
   <tile/>
   <tile/>
   <tile/>
   <tile/>
   <tile/>
   <tile/>
   <tile/>
   <tile/>
   <tile/>
   <tile/>
   <tile gid="215"/>
   <tile gid="215"/>
   <tile gid="215"/>
   <tile gid="215"/>
   <tile gid="215"/>
   <tile gid="215"/>
   <tile gid="215"/>
   <tile/>
   <tile/>
   <tile gid="191"/>
   <tile gid="191"/>
   <tile gid="191"/>
   <tile gid="191"/>
   <tile gid="191"/>
   <tile/>
   <tile/>
   <tile/>
   <tile/>
   <tile/>
   <tile/>
   <tile/>
   <tile/>
   <tile/>
   <tile/>
   <tile/>
   <tile/>
   <tile/>
   <tile/>
   <tile/>
   <tile/>
   <tile/>
   <tile/>
   <tile/>
   <tile/>
   <tile/>
   <tile gid="85"/>
   <tile gid="131"/>
   <tile/>
   <tile/>
   <tile/>
   <tile gid="191"/>
   <tile gid="191"/>
   <tile gid="191"/>
   <tile gid="191"/>
   <tile gid="191"/>
   <tile/>
   <tile/>
   <tile/>
   <tile/>
   <tile/>
   <tile/>
   <tile/>
   <tile/>
   <tile/>
   <tile/>
   <tile/>
   <tile/>
   <tile/>
   <tile/>
   <tile/>
   <tile/>
   <tile/>
   <tile/>
   <tile/>
   <tile/>
   <tile/>
   <tile gid="85"/>
   <tile gid="131"/>
   <tile/>
   <tile/>
   <tile/>
   <tile gid="191"/>
   <tile gid="191"/>
   <tile gid="191"/>
   <tile gid="191"/>
   <tile gid="191"/>
   <tile/>
   <tile/>
   <tile/>
   <tile/>
   <tile/>
   <tile/>
   <tile/>
   <tile/>
   <tile/>
   <tile/>
   <tile/>
   <tile/>
   <tile gid="69"/>
   <tile gid="2"/>
   <tile gid="2"/>
   <tile gid="2"/>
   <tile gid="2"/>
   <tile gid="2"/>
   <tile gid="2"/>
   <tile gid="2"/>
   <tile gid="2"/>
   <tile gid="2"/>
   <tile gid="2"/>
   <tile gid="2"/>
   <tile gid="2"/>
   <tile gid="2"/>
   <tile gid="2"/>
   <tile gid="2"/>
   <tile gid="2"/>
   <tile gid="2"/>
   <tile gid="2"/>
   <tile gid="2"/>
   <tile gid="2"/>
   <tile gid="2"/>
   <tile gid="2"/>
   <tile gid="2"/>
   <tile gid="2"/>
   <tile gid="2"/>
   <tile gid="2"/>
   <tile gid="2"/>
   <tile gid="2"/>
   <tile gid="2"/>
   <tile gid="89"/>
   <tile gid="90"/>
   <tile gid="388"/>
   <tile gid="23"/>
   <tile gid="23"/>
   <tile gid="23"/>
   <tile/>
   <tile/>
   <tile/>
   <tile/>
   <tile gid="85"/>
   <tile gid="195"/>
   <tile gid="195"/>
   <tile gid="195"/>
   <tile gid="195"/>
   <tile gid="191"/>
   <tile gid="195"/>
   <tile gid="195"/>
   <tile gid="191"/>
   <tile gid="191"/>
   <tile/>
   <tile/>
   <tile/>
   <tile/>
   <tile/>
   <tile/>
   <tile/>
   <tile/>
   <tile/>
   <tile/>
   <tile/>
   <tile/>
   <tile/>
   <tile/>
   <tile/>
   <tile/>
   <tile/>
   <tile gid="215"/>
   <tile gid="215"/>
   <tile gid="215"/>
   <tile gid="215"/>
   <tile gid="215"/>
   <tile gid="215"/>
   <tile gid="215"/>
   <tile gid="215"/>
   <tile gid="215"/>
   <tile gid="215"/>
   <tile gid="215"/>
   <tile gid="215"/>
   <tile gid="215"/>
   <tile gid="215"/>
   <tile gid="215"/>
   <tile gid="215"/>
   <tile gid="215"/>
   <tile gid="215"/>
   <tile gid="215"/>
   <tile gid="215"/>
   <tile gid="215"/>
   <tile gid="215"/>
   <tile gid="215"/>
   <tile gid="215"/>
   <tile gid="215"/>
   <tile gid="215"/>
   <tile gid="215"/>
   <tile gid="215"/>
   <tile gid="215"/>
   <tile gid="215"/>
   <tile gid="215"/>
  </data>
 </layer>
 <layer id="6" name="Player Interactable 2" width="31" height="18">
  <properties>
   <property name="isSolid" type="bool" value="true"/>
  </properties>
  <data>
   <tile/>
   <tile/>
   <tile/>
   <tile/>
   <tile/>
   <tile/>
   <tile/>
   <tile/>
   <tile/>
   <tile/>
   <tile gid="227"/>
   <tile gid="227"/>
   <tile/>
   <tile/>
   <tile/>
   <tile/>
   <tile/>
   <tile/>
   <tile/>
   <tile/>
   <tile/>
   <tile/>
   <tile/>
   <tile/>
   <tile/>
   <tile/>
   <tile/>
   <tile/>
   <tile/>
   <tile/>
   <tile/>
   <tile/>
   <tile/>
   <tile/>
   <tile/>
   <tile/>
   <tile/>
   <tile/>
   <tile/>
   <tile/>
   <tile/>
   <tile/>
   <tile/>
   <tile/>
   <tile/>
   <tile/>
   <tile/>
   <tile/>
   <tile/>
   <tile/>
   <tile/>
   <tile/>
   <tile/>
   <tile/>
   <tile/>
   <tile/>
   <tile/>
   <tile/>
   <tile/>
   <tile/>
   <tile/>
   <tile/>
   <tile/>
   <tile/>
   <tile/>
   <tile/>
   <tile/>
   <tile/>
   <tile/>
   <tile/>
   <tile/>
   <tile/>
   <tile/>
   <tile/>
   <tile/>
   <tile/>
   <tile/>
   <tile/>
   <tile/>
   <tile/>
   <tile/>
   <tile/>
   <tile/>
   <tile/>
   <tile/>
   <tile/>
   <tile/>
   <tile/>
   <tile/>
   <tile/>
   <tile/>
   <tile/>
   <tile/>
   <tile/>
   <tile/>
   <tile/>
   <tile/>
   <tile/>
   <tile/>
   <tile gid="207"/>
   <tile/>
   <tile/>
   <tile/>
   <tile/>
   <tile/>
   <tile/>
   <tile/>
   <tile/>
   <tile/>
   <tile/>
   <tile/>
   <tile/>
   <tile/>
   <tile/>
   <tile/>
   <tile/>
   <tile/>
   <tile/>
   <tile/>
   <tile/>
   <tile/>
   <tile/>
   <tile/>
   <tile/>
   <tile/>
   <tile/>
   <tile/>
   <tile/>
   <tile/>
   <tile/>
   <tile gid="207"/>
   <tile/>
   <tile/>
   <tile/>
   <tile/>
   <tile/>
   <tile/>
   <tile/>
   <tile/>
   <tile/>
   <tile/>
   <tile/>
   <tile/>
   <tile/>
   <tile/>
   <tile/>
   <tile/>
   <tile/>
   <tile/>
   <tile/>
   <tile/>
   <tile/>
   <tile/>
   <tile/>
   <tile/>
   <tile/>
   <tile/>
   <tile/>
   <tile/>
   <tile/>
   <tile/>
   <tile gid="25"/>
   <tile/>
   <tile/>
   <tile/>
   <tile/>
   <tile/>
   <tile/>
   <tile/>
   <tile/>
   <tile/>
   <tile/>
   <tile/>
   <tile/>
   <tile/>
   <tile/>
   <tile/>
   <tile/>
   <tile/>
   <tile/>
   <tile/>
   <tile/>
   <tile/>
   <tile/>
   <tile/>
   <tile/>
   <tile/>
   <tile/>
   <tile/>
   <tile/>
   <tile/>
   <tile/>
   <tile gid="207"/>
   <tile/>
   <tile/>
   <tile/>
   <tile/>
   <tile/>
   <tile/>
   <tile/>
   <tile/>
   <tile/>
   <tile/>
   <tile/>
   <tile/>
   <tile/>
   <tile/>
   <tile/>
   <tile/>
   <tile/>
   <tile/>
   <tile/>
   <tile/>
   <tile/>
   <tile/>
   <tile/>
   <tile/>
   <tile/>
   <tile/>
   <tile/>
   <tile/>
   <tile/>
   <tile/>
   <tile gid="207"/>
   <tile/>
   <tile/>
   <tile/>
   <tile/>
   <tile/>
   <tile/>
   <tile/>
   <tile/>
   <tile/>
   <tile/>
   <tile/>
   <tile/>
   <tile/>
   <tile/>
   <tile/>
   <tile/>
   <tile/>
   <tile/>
   <tile/>
   <tile/>
   <tile/>
   <tile/>
   <tile/>
   <tile gid="87"/>
   <tile/>
   <tile/>
   <tile/>
   <tile/>
   <tile/>
   <tile/>
   <tile gid="207"/>
   <tile/>
   <tile/>
   <tile/>
   <tile/>
   <tile/>
   <tile/>
   <tile/>
   <tile/>
   <tile/>
   <tile/>
   <tile/>
   <tile/>
   <tile/>
   <tile/>
   <tile/>
   <tile/>
   <tile/>
   <tile/>
   <tile/>
   <tile/>
   <tile/>
   <tile/>
   <tile/>
   <tile/>
   <tile/>
   <tile/>
   <tile/>
   <tile/>
   <tile/>
   <tile/>
   <tile gid="207"/>
   <tile/>
   <tile/>
   <tile/>
   <tile/>
   <tile/>
   <tile/>
   <tile/>
   <tile/>
   <tile/>
   <tile/>
   <tile/>
   <tile/>
   <tile/>
   <tile/>
   <tile/>
   <tile/>
   <tile/>
   <tile/>
   <tile/>
   <tile/>
   <tile/>
   <tile/>
   <tile/>
   <tile/>
   <tile/>
   <tile/>
   <tile/>
   <tile/>
   <tile/>
   <tile/>
   <tile gid="207"/>
   <tile/>
   <tile/>
   <tile/>
   <tile/>
   <tile/>
   <tile/>
   <tile/>
   <tile/>
   <tile/>
   <tile/>
   <tile/>
   <tile/>
   <tile/>
   <tile/>
   <tile/>
   <tile/>
   <tile/>
   <tile/>
   <tile/>
   <tile/>
   <tile/>
   <tile/>
   <tile/>
   <tile/>
   <tile/>
   <tile/>
   <tile/>
   <tile/>
   <tile/>
   <tile gid="215"/>
   <tile/>
   <tile/>
   <tile/>
   <tile/>
   <tile/>
   <tile/>
   <tile/>
   <tile/>
   <tile/>
   <tile/>
   <tile/>
   <tile/>
   <tile/>
   <tile/>
   <tile/>
   <tile/>
   <tile/>
   <tile/>
   <tile/>
   <tile/>
   <tile/>
   <tile/>
   <tile/>
   <tile/>
   <tile/>
   <tile/>
   <tile/>
   <tile/>
   <tile/>
   <tile/>
   <tile gid="215"/>
   <tile/>
   <tile/>
   <tile/>
   <tile/>
   <tile/>
   <tile/>
   <tile/>
   <tile/>
   <tile/>
   <tile/>
   <tile/>
   <tile/>
   <tile/>
   <tile/>
   <tile/>
   <tile/>
   <tile/>
   <tile/>
   <tile/>
   <tile/>
   <tile/>
   <tile/>
   <tile/>
   <tile/>
   <tile/>
   <tile/>
   <tile/>
   <tile/>
   <tile/>
   <tile/>
   <tile/>
   <tile/>
   <tile/>
   <tile/>
   <tile/>
   <tile/>
   <tile/>
   <tile/>
   <tile/>
   <tile/>
   <tile/>
   <tile/>
   <tile/>
   <tile/>
   <tile/>
   <tile/>
   <tile/>
   <tile/>
   <tile/>
   <tile/>
   <tile/>
   <tile/>
   <tile/>
   <tile/>
   <tile/>
   <tile/>
   <tile/>
   <tile/>
   <tile/>
   <tile/>
   <tile/>
   <tile/>
   <tile/>
   <tile/>
   <tile/>
   <tile/>
   <tile/>
   <tile/>
   <tile/>
   <tile/>
   <tile/>
   <tile/>
   <tile/>
   <tile/>
   <tile/>
   <tile/>
   <tile/>
   <tile/>
   <tile/>
   <tile/>
   <tile/>
   <tile/>
   <tile/>
   <tile/>
   <tile/>
   <tile/>
   <tile/>
   <tile/>
   <tile/>
   <tile/>
   <tile/>
   <tile/>
   <tile/>
   <tile/>
   <tile/>
   <tile/>
   <tile/>
   <tile/>
   <tile/>
   <tile/>
   <tile/>
   <tile/>
   <tile/>
   <tile/>
   <tile/>
   <tile/>
   <tile/>
   <tile/>
   <tile/>
   <tile/>
   <tile/>
   <tile/>
   <tile/>
   <tile/>
   <tile/>
   <tile/>
   <tile/>
   <tile/>
   <tile/>
   <tile/>
   <tile/>
   <tile/>
   <tile/>
   <tile/>
   <tile/>
   <tile/>
   <tile/>
   <tile/>
   <tile/>
   <tile/>
   <tile/>
   <tile/>
   <tile/>
   <tile/>
   <tile/>
   <tile/>
   <tile/>
   <tile/>
   <tile/>
   <tile/>
   <tile/>
   <tile/>
   <tile/>
   <tile/>
   <tile/>
   <tile/>
   <tile/>
   <tile/>
   <tile/>
   <tile/>
   <tile/>
   <tile/>
   <tile/>
   <tile/>
   <tile/>
   <tile/>
   <tile/>
   <tile/>
   <tile/>
   <tile/>
   <tile/>
   <tile/>
   <tile/>
   <tile/>
   <tile/>
   <tile/>
   <tile/>
   <tile/>
   <tile/>
   <tile/>
   <tile/>
   <tile/>
   <tile/>
   <tile/>
   <tile/>
   <tile/>
   <tile/>
   <tile/>
   <tile/>
   <tile/>
  </data>
 </layer>
</map>
